X:1
T:Rajasthan, 10.10.10.10
T:Rajasthan, 10.10.10.10
T:James Henry Fillmore, Sr., 1893
T:Public Domain Courtesy of the Cyber Hymnal™
C:James Henry Fillmore, Sr., 1893
Z:Public Domain
Z:Courtesy of the Cyber Hymnal™
%%score ( 1 2 ) ( 3 4 )
L:1/8
Q:1/4=115
M:4/4
K:G
V:1 treble 
V:2 treble 
V:3 bass 
V:4 bass 
V:1
 [DB]4 [CA]2 [B,G]2 | [B,D]6 [DG]2 | [DF]2 [DG]2 [Dc]2 [DB]2 | (B4 A4) | [DB]4 [DA]2 [DG]2 | %5
 [CE]6 [EA]2 | [DG]2 [DG]2 [DF]2 [DF]2 | [DG]8 | [Gd]4 [Fc]2 [Fc]2 | [GB]6 [FA]2 | %10
 [EG]2 [^DF]2 [EG]2 [EA]2 | (F3 E D4) | [DB]4 [DA]2 [DG]2 | [DF]4 [CE]4 | [B,D]2 D2 [CE]2 [CD]2 | %15
 [B,G]8 |] %16
V:2
 x8 | x8 | x8 | D8 | x8 | x8 | x8 | x8 | x8 | x8 | x8 | D8 | x8 | x8 | x2 D2 x4 | x8 |] %16
V:3
 G,4 G,2 G,2 | G,6 [B,D]2 | [A,C]2 [G,B,]2 [F,A,]2 G,2 | (G,4 F,4) | [G,,G,]4 [A,,F,]2 [B,,G,]2 | %5
 [C,G,]6 [C,C]2 | [D,B,]2 [D,B,]2 [D,A,]2 [D,A,]2 | [G,,G,B,]8 | [B,D]4 [A,D]2 [A,D]2 | %9
 [G,D]6 [D,C]2 | [E,B,]2 [B,,B,]2 [E,B,]2 [^C,A,]2 | (A,3 G, F,4) | [G,,G,]4 [A,,F,]2 [B,,G,]2 | %13
 [C,G,]4 [C,G,]4 | [D,G,]2 [D,B,]2 [D,A,]2 [D,F,]2 | [G,,G,]8 |] %16
V:4
 G,4 G,2 G,2 | G,6 x2 | x6 G,2 | D,8 | x8 | x8 | x8 | x8 | x8 | x8 | x8 | D,8 | x8 | x8 | x8 | %15
 x8 |] %16

